X: 10626
T: Dowd's No. 9
R: reel
M: 4/4
K: Bminor
DE|:FAGF E2 DE|FAdB AGGA|EDGE BdAG|GAGF E2 DE|
FAGF E2 DE|FAdB AGGA|EDGD BdAG|1 GAGF E2 DE:|2 [M:3/4 ] GA GF E2||
M:4/4
|:f2 ed f g3-|gfed edBd|f2 d2 gfed|ceag fe d2|a2 gf gffg|
f3 e/d/ edBA|G2 AG GADF|1 A3 F GF E2:|2 [M:5/4] A3 FGF E2 DE||

